billpay/others.svg

<svg width="48" height="48" viewBox="0 0 48 48" fill="none" xmlns="http://www.w3.org/2000/svg">
<mask id="mask0_3027_21374" style="mask-type:alpha" maskUnits="userSpaceOnUse" x="0" y="0" width="48" height="48">
<rect width="48" height="48" fill="#D9D9D9"/>
</mask>
<g mask="url(#mask0_3027_21374)">
<path d="M12 40C10.9 40 9.95833 39.6083 9.175 38.825C8.39167 38.0417 8 37.1 8 36C8 34.9 8.39167 33.9583 9.175 33.175C9.95833 32.3917 10.9 32 12 32C13.1 32 14.0417 32.3917 14.825 33.175C15.6083 33.9583 16 34.9 16 36C16 37.1 15.6083 38.0417 14.825 38.825C14.0417 39.6083 13.1 40 12 40ZM24 40C22.9 40 21.9583 39.6083 21.175 38.825C20.3917 38.0417 20 37.1 20 36C20 34.9 20.3917 33.9583 21.175 33.175C21.9583 32.3917 22.9 32 24 32C25.1 32 26.0417 32.3917 26.825 33.175C27.6083 33.9583 28 34.9 28 36C28 37.1 27.6083 38.0417 26.825 38.825C26.0417 39.6083 25.1 40 24 40ZM36 40C34.9 40 33.9583 39.6083 33.175 38.825C32.3917 38.0417 32 37.1 32 36C32 34.9 32.3917 33.9583 33.175 33.175C33.9583 32.3917 34.9 32 36 32C37.1 32 38.0417 32.3917 38.825 33.175C39.6083 33.9583 40 34.9 40 36C40 37.1 39.6083 38.0417 38.825 38.825C38.0417 39.6083 37.1 40 36 40ZM12 28C10.9 28 9.95833 27.6083 9.175 26.825C8.39167 26.0417 8 25.1 8 24C8 22.9 8.39167 21.9583 9.175 21.175C9.95833 20.3917 10.9 20 12 20C13.1 20 14.0417 20.3917 14.825 21.175C15.6083 21.9583 16 22.9 16 24C16 25.1 15.6083 26.0417 14.825 26.825C14.0417 27.6083 13.1 28 12 28ZM24 28C22.9 28 21.9583 27.6083 21.175 26.825C20.3917 26.0417 20 25.1 20 24C20 22.9 20.3917 21.9583 21.175 21.175C21.9583 20.3917 22.9 20 24 20C25.1 20 26.0417 20.3917 26.825 21.175C27.6083 21.9583 28 22.9 28 24C28 25.1 27.6083 26.0417 26.825 26.825C26.0417 27.6083 25.1 28 24 28ZM36 28C34.9 28 33.9583 27.6083 33.175 26.825C32.3917 26.0417 32 25.1 32 24C32 22.9 32.3917 21.9583 33.175 21.175C33.9583 20.3917 34.9 20 36 20C37.1 20 38.0417 20.3917 38.825 21.175C39.6083 21.9583 40 22.9 40 24C40 25.1 39.6083 26.0417 38.825 26.825C38.0417 27.6083 37.1 28 36 28ZM12 16C10.9 16 9.95833 15.6083 9.175 14.825C8.39167 14.0417 8 13.1 8 12C8 10.9 8.39167 9.95833 9.175 9.175C9.95833 8.39167 10.9 8 12 8C13.1 8 14.0417 8.39167 14.825 9.175C15.6083 9.95833 16 10.9 16 12C16 13.1 15.6083 14.0417 14.825 14.825C14.0417 15.6083 13.1 16 12 16ZM24 16C22.9 16 21.9583 15.6083 21.175 14.825C20.3917 14.0417 20 13.1 20 12C20 10.9 20.3917 9.95833 21.175 9.175C21.9583 8.39167 22.9 8 24 8C25.1 8 26.0417 8.39167 26.825 9.175C27.6083 9.95833 28 10.9 28 12C28 13.1 27.6083 14.0417 26.825 14.825C26.0417 15.6083 25.1 16 24 16ZM36 16C34.9 16 33.9583 15.6083 33.175 14.825C32.3917 14.0417 32 13.1 32 12C32 10.9 32.3917 9.95833 33.175 9.175C33.9583 8.39167 34.9 8 36 8C37.1 8 38.0417 8.39167 38.825 9.175C39.6083 9.95833 40 10.9 40 12C40 13.1 39.6083 14.0417 38.825 14.825C38.0417 15.6083 37.1 16 36 16Z" fill="white"/>
</g>
</svg>

<svg width="48" height="48" viewBox="0 0 48 48" fill="none" xmlns="http://www.w3.org/2000/svg"><path d="M12 40q-1.65 0-2.825-1.175T8 36t1.175-2.825T12 32t2.825 1.175T16 36t-1.175 2.825T12 40m12 0q-1.65 0-2.825-1.175T20 36t1.175-2.825T24 32t2.825 1.175T28 36t-1.175 2.825T24 40m12 0q-1.65 0-2.825-1.175T32 36t1.175-2.825T36 32t2.825 1.175T40 36t-1.175 2.825T36 40M12 28q-1.65 0-2.825-1.175T8 24t1.175-2.825T12 20t2.825 1.175T16 24t-1.175 2.825T12 28m12 0q-1.65 0-2.825-1.175T20 24t1.175-2.825T24 20t2.825 1.175T28 24t-1.175 2.825T24 28m12 0q-1.65 0-2.825-1.175T32 24t1.175-2.825T36 20t2.825 1.175T40 24t-1.175 2.825T36 28M12 16q-1.65 0-2.825-1.175T8 12t1.175-2.825T12 8t2.825 1.175T16 12t-1.175 2.825T12 16m12 0q-1.65 0-2.825-1.175T20 12t1.175-2.825T24 8t2.825 1.175T28 12t-1.175 2.825T24 16m12 0q-1.65 0-2.825-1.175T32 12t1.175-2.825T36 8t2.825 1.175T40 12t-1.175 2.825T36 16" fill="#fff"/></svg>
